X: 24085
T: Long Journey, The
R: jig
M: 6/8
K: Eminor
B2G EFG|Bee edc|B2G EFG|FAA AGF|
EFG FGA|Bee efg|dcB AGF|1 GBF EA^A:|2 GBF E2e||
|:ede Bee|~g3 bag|ede Beg|faa dfa|
bge afd|gec fdB|e/f/ge dcB|1 AGF E2d:|2 AGF EA^A||

